src/img/advisory/crowdfunding.svg

<svg width="28" height="43" viewBox="0 0 28 43" fill="none" xmlns="http://www.w3.org/2000/svg">
<path d="M14.0907 34.4975C13.9674 34.4731 13.841 34.4688 13.7161 34.4858C12.4649 34.3531 11.521 33.3886 11.5189 32.2414C11.5189 31.6916 11.0296 31.2459 10.4261 31.2459C9.82265 31.2459 9.33336 31.6916 9.33336 32.2414C9.33657 34.1572 10.7431 35.8352 12.7706 36.3422V37.3378C12.7706 37.8876 13.2599 38.3334 13.8634 38.3334C14.4668 38.3334 14.9561 37.8876 14.9561 37.3378V36.4025C17.2964 35.9563 18.887 33.9705 18.641 31.8039C18.3945 29.6373 16.3909 27.9909 14 27.9904C12.6298 27.9904 11.5189 26.9783 11.5189 25.73C11.5189 24.4816 12.6298 23.4695 14 23.4695C15.3702 23.4695 16.4811 24.4816 16.4811 25.73C16.4811 26.2797 16.9704 26.7255 17.5738 26.7255C18.1773 26.7255 18.6666 26.2797 18.6666 25.73C18.6634 23.7184 17.1166 21.9835 14.9561 21.5684V20.6622C14.9561 20.1125 14.4668 19.6667 13.8634 19.6667C13.2599 19.6667 12.7706 20.1125 12.7706 20.6622V21.6291C10.5158 22.1901 9.06445 24.1846 9.37498 26.2953C9.68552 28.406 11.6624 29.9815 14 29.981C15.352 29.981 16.4549 30.9673 16.4795 32.1986C16.5046 33.43 15.4417 34.4527 14.0907 34.4975Z" fill="#19338B"/>
<path d="M0 28.4166C0 36.4709 6.2679 43 14 43C21.7321 43 28 36.4709 28 28.4166C28 20.3624 21.7321 13.8333 14 13.8333C6.27167 13.8422 0.00895686 20.3663 0 28.4166ZM14 15.8447C20.6658 15.8447 26.0691 21.4731 26.0691 28.4166C26.0691 35.3602 20.6658 40.9886 14 40.9886C7.33423 40.9886 1.9309 35.3602 1.9309 28.4166C1.93845 21.4766 7.33753 15.8525 14 15.8447Z" fill="#19338B"/>
<path d="M15 10.9565V1.04348C15 0.467221 14.5522 0 14 0C13.4478 0 13 0.467221 13 1.04348V10.9565C13 11.5328 13.4478 12 14 12C14.5522 12 15 11.5328 15 10.9565Z" fill="#19338B"/>
<path d="M23 10.5898V5.74361C23 5.14888 22.5522 4.66669 22 4.66669C21.4478 4.66669 21 5.14888 21 5.74361V10.5898C21 11.1845 21.4478 11.6667 22 11.6667C22.5522 11.6667 23 11.1845 23 10.5898Z" fill="#19338B"/>
<path d="M7.83301 10.5898V5.74361C7.83301 5.14888 7.38525 4.66669 6.83301 4.66669C6.28076 4.66669 5.83301 5.14888 5.83301 5.74361V10.5898C5.83301 11.1845 6.28076 11.6667 6.83301 11.6667C7.38525 11.6667 7.83301 11.1845 7.83301 10.5898Z" fill="#19338B"/>
</svg>

<svg xmlns="http://www.w3.org/2000/svg" width="28" height="43" fill="none"><path fill="#19338B" d="M14.1 34.5a1.14 1.14 0 00-.38-.01c-1.26-.14-2.2-1.1-2.2-2.25 0-.55-.49-1-1.1-1-.6 0-1.09.45-1.09 1 0 1.92 1.41 3.6 3.44 4.1v1c0 .55.49 1 1.1 1 .6 0 1.09-.45 1.09-1v-.94c2.34-.44 3.93-2.43 3.68-4.6C18.4 29.64 16.4 28 14 28c-1.37 0-2.48-1.01-2.48-2.26 0-1.25 1.11-2.26 2.48-2.26 1.37 0 2.48 1.01 2.48 2.26 0 .55.49 1 1.1 1 .6 0 1.09-.45 1.09-1 0-2.01-1.55-3.75-3.71-4.16v-.9c0-.56-.5-1-1.1-1-.6 0-1.09.44-1.09 1v.96c-2.25.56-3.7 2.55-3.4 4.67.32 2.1 2.3 3.68 4.63 3.68 1.35 0 2.45.99 2.48 2.22.02 1.23-1.04 2.25-2.39 2.3z"/><path fill="#19338B" d="M0 28.42C0 36.47 6.27 43 14 43s14-6.53 14-14.58c0-8.06-6.27-14.59-14-14.59-7.73.01-14 6.54-14 14.59zm14-12.58c6.67 0 12.07 5.63 12.07 12.58 0 6.94-5.4 12.57-12.07 12.57S1.93 35.36 1.93 28.42 7.33 15.85 14 15.84zM15 10.96V1.04C15 .47 14.55 0 14 0s-1 .47-1 1.04v9.92c0 .57.45 1.04 1 1.04s1-.47 1-1.04zM23 10.59V5.74c0-.6-.45-1.07-1-1.07s-1 .48-1 1.07v4.85c0 .6.45 1.08 1 1.08s1-.49 1-1.08zM7.83 10.59V5.74c0-.6-.44-1.07-1-1.07-.55 0-1 .48-1 1.07v4.85c0 .6.45 1.08 1 1.08.56 0 1-.49 1-1.08z"/></svg>
